packages/foundations/assets/icons/functional/images/file/notebook_16.svg

<svg width="16" height="16" viewBox="0 0 16 16" fill="none" xmlns="http://www.w3.org/2000/svg">
<g clip-path="url(#clip0_185_988)">
<path fill-rule="evenodd" clip-rule="evenodd" d="M12.8 1.59998C13.2419 1.59998 13.6 1.95815 13.6 2.39998V13.6C13.6 14.0418 13.2419 14.4 12.8 14.4H4.80002C4.3582 14.4 4.00002 14.0418 4.00002 13.6L3.99902 10.4H3.20002C2.7582 10.4 2.40002 10.0418 2.40002 9.59998C2.40002 9.15815 2.7582 8.79998 3.20002 8.79998H3.99902V7.19998H3.20002C2.7582 7.19998 2.40002 6.8418 2.40002 6.39998C2.40002 5.95815 2.7582 5.59998 3.20002 5.59998H3.99902L4.00002 2.39998C4.00002 1.99213 4.30521 1.65557 4.69967 1.60621L4.80002 1.59998H12.8ZM12 3.19998H5.60002V12.8H12V3.19998ZM10.4 8.79998V10.4H7.20002V8.79998H10.4ZM10.4 5.59998V7.19998H7.20002V5.59998H10.4Z" fill="#1A1C1F"/>
</g>
<defs>
<clipPath id="clip0_185_988">
<rect width="16" height="16" fill="white"/>
</clipPath>
</defs>
</svg>

<svg xmlns="http://www.w3.org/2000/svg" width="16" height="16" fill="none"><g clip-path="url(#a)"><path fill="#1A1C1F" fill-rule="evenodd" d="M12.8 1.6a.8.8 0 0 1 .8.8v11.2a.8.8 0 0 1-.8.8h-8a.8.8 0 0 1-.8-.8l-.001-3.2H3.2a.8.8 0 0 1 0-1.6h.799V7.2H3.2a.8.8 0 0 1 0-1.6h.799L4 2.4a.8.8 0 0 1 .7-.794l.1-.006zM12 3.2H5.6v9.6H12zm-1.6 5.6v1.6H7.2V8.8zm0-3.2v1.6H7.2V5.6z" clip-rule="evenodd"/></g><defs><clipPath id="a"><path fill="#fff" d="M0 0h16v16H0z"/></clipPath></defs></svg>
